src/shared/assets/icons/brunka.svg

<svg width="74" height="74" viewBox="0 0 74 74" fill="none" xmlns="http://www.w3.org/2000/svg">
<path d="M59.431 17.2048L59.4623 17.2351L54.683 22.0144C61.4046 30.0927 61.0041 42.1179 53.4193 49.7029C52.1244 48.408 50.9524 46.9899 49.9349 45.4792C49.349 49.3333 47.283 53.0643 43.7064 56.0242C42.3807 54.9142 41.3013 53.7116 40.3763 52.4167C38.3722 55.5924 35.1649 58.1203 30.8793 59.446C29.9236 57.6271 29.3073 55.808 28.9681 53.989C25.6998 57.7815 20.581 59.9092 14.6302 59.3542C14.0753 53.3726 16.203 48.2847 19.9955 45.0164C18.1764 44.6772 16.3575 44.06 14.5385 43.1042C15.8643 38.8496 18.3922 35.6431 21.5677 33.6082C20.3037 32.714 19.1015 31.6038 17.9916 30.2781C20.9516 26.6706 24.713 24.6046 28.598 24.0496C27.0872 23.0629 25.6377 21.9222 24.3119 20.5964C31.8968 13.0115 43.922 12.5795 52.0004 19.3318L56.7797 14.5525L59.431 17.2048ZM24.1888 46.6501C23.1713 47.2668 22.2151 47.9763 21.4135 48.8396C19.7486 50.6587 18.7311 53.0021 18.392 55.6228C21.3827 55.222 24.0038 53.9273 25.9154 51.8308V51.7996C26.4704 51.2137 26.9335 50.5048 27.3344 49.7957C26.3477 49.7957 25.3294 49.7651 24.3119 49.6726C24.1886 48.6551 24.1888 47.6368 24.1888 46.6501ZM37.8793 47.2976C36.2452 48.0992 34.4875 48.7468 32.6068 49.1785C32.3601 50.9051 32.4211 52.7251 32.9144 54.5134C35.3503 53.0951 37.2006 51.0904 38.2181 48.6238H38.1869C38.2484 48.593 38.2494 48.5317 38.2494 48.5007C38.0952 48.0999 38.0026 47.6984 37.8793 47.2976ZM45.0013 37.8015C44.0148 38.2023 43.0281 38.5411 41.9799 38.8494C41.394 40.2369 41.0551 41.7174 41.0551 43.2283C41.0551 45.8797 41.98 48.4385 43.7064 50.6892L43.7377 50.7205C45.4642 48.5005 46.389 45.9101 46.389 43.2585C46.389 41.347 45.8954 39.4972 45.0013 37.8015ZM34.2719 36.2292C33.0694 36.5376 31.8049 36.6609 30.5717 36.6609C28.9995 39.4045 28.0742 42.5794 27.9506 46.032C31.392 45.8739 34.5573 44.9807 37.2933 43.4128C37.2933 42.1488 37.4475 40.9156 37.725 39.6824C36.4916 39.8365 35.2577 39.9597 33.9935 39.9597C33.9935 38.6957 34.1177 37.4625 34.2719 36.2292ZM38.8344 18.3142C35.7512 18.3143 32.7914 19.1476 30.2015 20.6892C32.4831 22.2924 35.0114 23.5253 37.6937 24.3269L41.8256 25.5603L40.0375 29.4763C39.0816 31.573 38.4338 33.7315 38.0638 35.9207C40.253 35.5507 42.4115 34.9029 44.5082 33.947L48.4242 32.1589L49.6576 36.2908C50.4592 38.9731 51.6921 41.5014 53.2953 43.783C57.1494 37.308 56.2866 28.7978 50.7367 23.2478C47.5609 20.072 43.336 18.3142 38.8344 18.3142ZM25.515 35.7351C23.0175 36.7218 20.9202 38.572 19.4711 41.1003L19.5023 41.0701C20.6431 41.3784 21.8147 41.532 22.9554 41.532C23.5721 41.532 24.1894 41.4702 24.806 41.3777C25.2069 39.497 25.8545 37.7398 26.6869 36.075C26.2861 35.9825 25.885 35.8893 25.515 35.7351ZM30.7562 27.6267C28.1046 27.6268 25.5143 28.5515 23.2943 30.2781C25.5143 32.0047 28.1046 32.9294 30.7562 32.9294C32.2669 32.9294 33.7472 32.6216 35.1654 32.0359C35.4737 31.0184 35.8134 30.0001 36.2142 29.0134C34.4876 28.1193 32.6371 27.6267 30.7562 27.6267Z" fill="#149A76"/>
</svg>

<svg xmlns="http://www.w3.org/2000/svg" width="74" height="74" fill="none" viewBox="0 0 74 74"><path fill="#149A76" d="m59.431 17.205.031.03-4.779 4.78c6.722 8.078 6.321 20.103-1.264 27.688a28.5 28.5 0 0 1-3.484-4.224c-.586 3.854-2.652 7.585-6.229 10.545a19.2 19.2 0 0 1-3.33-3.607c-2.004 3.175-5.211 5.703-9.497 7.029a19.3 19.3 0 0 1-1.91-5.457c-3.27 3.793-8.388 5.92-14.339 5.365-.555-5.981 1.573-11.07 5.365-14.338a19.3 19.3 0 0 1-5.456-1.912c1.325-4.254 3.853-7.46 7.029-9.496a19 19 0 0 1-3.576-3.33c2.96-3.607 6.721-5.673 10.606-6.228a26.6 26.6 0 0 1-4.286-3.454c7.585-7.584 19.61-8.017 27.688-1.264l4.78-4.78zM24.189 46.65c-1.018.617-1.974 1.326-2.776 2.19-1.664 1.819-2.682 4.162-3.021 6.783 2.99-.401 5.612-1.696 7.523-3.792V51.8c.555-.586 1.018-1.295 1.42-2.004-.987 0-2.006-.03-3.023-.123-.123-1.018-.123-2.036-.123-3.023m13.69.648a24.3 24.3 0 0 1-5.272 1.88c-.247 1.727-.186 3.547.307 5.335 2.436-1.418 4.287-3.423 5.304-5.89h-.031c.061-.03.062-.091.062-.122-.154-.401-.246-.803-.37-1.203m7.122-9.497c-.986.401-1.973.74-3.021 1.048-.586 1.388-.925 2.868-.925 4.38 0 2.65.925 5.21 2.651 7.46l.032.032c1.726-2.22 2.651-4.81 2.651-7.462 0-1.912-.494-3.762-1.388-5.458m-10.73-1.572c-1.202.309-2.466.432-3.7.432-1.572 2.743-2.497 5.918-2.62 9.371 3.441-.158 6.606-1.051 9.342-2.62 0-1.263.154-2.496.432-3.73-1.233.154-2.467.278-3.732.278 0-1.264.125-2.498.279-3.73m4.563-17.915c-3.083 0-6.043.834-8.633 2.375a26 26 0 0 0 7.493 3.638l4.132 1.233-1.788 3.916a26 26 0 0 0-1.974 6.445 26 26 0 0 0 6.444-1.974l3.916-1.788 1.234 4.132a26 26 0 0 0 3.637 7.492c3.854-6.475 2.992-14.985-2.558-20.535a16.72 16.72 0 0 0-11.903-4.934m-13.32 17.42c-2.498.987-4.595 2.837-6.044 5.365l.031-.03c1.141.308 2.313.462 3.453.462.617 0 1.234-.062 1.851-.154.4-1.881 1.049-3.638 1.88-5.303-.4-.093-.801-.186-1.171-.34m5.241-8.108c-2.651 0-5.242.925-7.462 2.651 2.22 1.727 4.81 2.651 7.462 2.651a11.5 11.5 0 0 0 4.41-.893 35 35 0 0 1 1.048-3.023c-1.726-.894-3.577-1.386-5.458-1.386"/></svg>
